outputs/icons/editor/bullet_list_sharp.svg

<svg xmlns="http://www.w3.org/2000/svg" width="1200" height="1200" fill="none"><g clip-path="url(#a)"><path fill="#000" d="M200 525c-41.5 0-75 33.5-75 75s33.5 75 75 75 75-33.5 75-75-33.5-75-75-75m0-300c-41.5 0-75 33.5-75 75s33.5 75 75 75 75-33.5 75-75-33.5-75-75-75m0 600c-41.5 0-75 34-75 75s34 75 75 75 75-34 75-75-33.5-75-75-75m150 125h700V850H350zm0-300h700V550H350zm0-400v100h700V250z"/></g><defs><clipPath id="a"><path fill="#fff" d="M0 0h1200v1200H0z"/></clipPath></defs></svg>

<svg width="1200" height="1200" viewBox="0 0 1200 1200" fill="none" xmlns="http://www.w3.org/2000/svg"><g clip-path="url(#clip0_125_1479)"><path d="M200 525C158.5 525 125 558.5 125 600C125 641.5 158.5 675 200 675C241.5 675 275 641.5 275 600C275 558.5 241.5 525 200 525ZM200 225C158.5 225 125 258.5 125 300C125 341.5 158.5 375 200 375C241.5 375 275 341.5 275 300C275 258.5 241.5 225 200 225ZM200 825C158.5 825 125 859 125 900C125 941 159 975 200 975C241 975 275 941 275 900C275 859 241.5 825 200 825ZM350 950H1050V850H350V950ZM350 650H1050V550H350V650ZM350 250V350H1050V250H350Z" fill="black"/></g><defs><clipPath id="clip0_125_1479"><path width="24" fill="white" d="M0 0H1200V1200H0V0z"/></clipPath></defs></svg>
